X: 15715
T: Golden Peg, The
R: jig
M: 6/8
K: Bminor
|:FBB Bcd|efc ecB|AFF ~F2E|cAB AFE|
FBB Bcd|ecA a2f|ecA efc|1 ~B3 B2E:|2 ~B3 B2f||
a2f gee|fdd edc|Bce ~c2B|ceg f2f|
a2f gee|fdf ecA|ecA efc|~B3 B2f|
a2f gee|fdd edc|Bce ~c2B|ceg f2E|
FBB Bcd|efc ecA|ecA efc|~B3 B2E||

